svg/black/mcap.svg

<svg xmlns="http://www.w3.org/2000/svg" width="32" height="32" viewBox="0 0 32 32">
  <path fill-rule="evenodd" d="M16,32 C7.163444,32 0,24.836556 0,16 C0,7.163444 7.163444,0 16,0 C24.836556,0 32,7.163444 32,16 C32,24.836556 24.836556,32 16,32 Z M15.5319689,7.06384526 C15.2464891,7.14181821 14.9898993,7.29289079 14.7360996,7.43740656 C12.4899714,8.71607427 10.2309733,9.97197035 7.97638512,11.2353979 C7.37086562,11.5641248 6.99331593,12.2277809 7.01923591,12.9064113 C7.01644591,16.1515922 7.04047589,19.3977477 7.00168592,22.6429286 C6.98044594,22.8400761 7.16323579,23.0136545 7.36168562,22.9946043 C8.35123481,22.9973511 9.34168399,23.0036421 10.3312332,22.9918575 C10.566583,22.996465 10.6865529,22.7501414 10.6635129,22.5475003 C10.6866429,19.8784332 10.6792629,17.2093661 10.6838529,14.540299 C10.6912329,14.2522421 10.7514428,13.9396414 10.9764426,13.7351397 C11.3216824,13.4189062 11.754582,13.220784 12.1579617,12.9890803 C12.5613413,12.779085 12.941681,12.5246983 13.3672007,12.3592716 C13.5626805,12.2883871 13.8232303,12.2330086 13.9856802,12.4002074 C14.15551,12.5910639 14.15182,12.8616655 14.16658,13.1009006 C14.18044,14.4594906 14.16289,15.8190553 14.16568,17.1776453 C14.17774,17.4157286 14.17126,17.6774696 14.3115699,17.8846295 C14.4675398,18.0936502 14.7555395,18.1081815 14.9955693,18.1336113 C15.5623889,18.1617879 16.1300184,18.140877 16.6977379,18.1472566 C17.0115677,18.141763 17.3734574,18.1381302 17.6124972,17.9036797 C17.845777,17.6664825 17.835877,17.3102879 17.836777,17.0030922 C17.803567,15.7099818 17.812747,14.4158967 17.847847,13.1235837 C17.869087,12.8636148 17.867197,12.5592545 18.0721268,12.3656512 C18.2568067,12.2166165 18.5124964,12.3011463 18.7081563,12.3792965 C19.2259259,12.608342 19.6967155,12.9245755 20.1970251,13.1872025 C20.5024848,13.3552874 20.8431345,13.4998031 21.0591343,13.7833411 C21.2723442,14.0496896 21.3351641,14.3977325 21.3360641,14.7284973 C21.3092441,17.3647803 21.2741442,20.0030127 21.3664841,22.6384097 C21.3443441,22.8510632 21.5455839,23.0273884 21.7560038,22.996465 C22.716933,22.9973511 23.6778622,23.0009839 24.6387914,22.9946043 C24.8825112,23.0172873 25.0292111,22.7719384 24.9951011,22.5565381 C24.9906911,19.462164 24.9978011,16.3669038 24.9996911,13.2725297 C25.0116611,12.3392467 24.4578015,11.4340517 23.6252122,10.9933273 C21.457834,9.80379688 19.3089058,8.58059628 17.1609676,7.35828174 C16.680278,7.06747809 16.0886184,6.90116534 15.5319689,7.06384526 Z"/>
</svg>

<svg xmlns="http://www.w3.org/2000/svg" width="32" height="32"><path fill-rule="evenodd" d="M16 32C7.163 32 0 24.837 0 16S7.163 0 16 0s16 7.163 16 16-7.163 16-16 16zm-.468-24.936c-.286.078-.542.229-.796.373-2.246 1.28-4.505 2.535-6.76 3.798a1.848 1.848 0 0 0-.957 1.671c-.003 3.246.021 6.492-.017 9.737-.022.197.161.37.36.352.99.002 1.98.009 2.97-.003.235.004.355-.242.332-.444.023-2.67.015-5.339.02-8.008.007-.288.067-.6.292-.805.346-.316.779-.514 1.182-.746.403-.21.784-.464 1.21-.63.195-.07.455-.126.618.041.17.191.166.462.18.7.014 1.36-.003 2.72 0 4.078.012.238.005.5.146.707.156.209.444.223.684.249.566.028 1.134.007 1.702.013.314-.005.675-.009.914-.243.234-.238.224-.594.225-.9a73.454 73.454 0 0 1 .01-3.88c.022-.26.02-.565.225-.758.185-.15.44-.065.636.013.518.23.989.546 1.489.808.305.168.646.313.862.596.213.267.276.615.277.945-.027 2.637-.062 5.275.03 7.91-.022.213.18.39.39.358.96.001 1.922.005 2.883-.001.244.022.39-.223.356-.438-.004-3.095.003-6.19.005-9.284.012-.934-.542-1.839-1.375-2.28-2.167-1.19-4.316-2.412-6.464-3.635-.48-.29-1.072-.457-1.629-.294z"/></svg>
